Adwaita++/places/16/folder-java.svg

<svg height="16" width="16" xmlns="http://www.w3.org/2000/svg">
  <path d="m6.172 1s.824.465.242 1.688c-.881 1.842.813 2.263.813 2.263s-.538-.432.179-1.953c.793-1.685-1.234-1.998-1.234-1.998zm3.199 1.84s-1.642.63-.584 2.351c.7 1.141-.076 1.707-.076 1.707s1.985-.563 1.027-2.138c-.86-1.424-.367-1.92-.367-1.92zm-4.728.047s-1.438 1.095-.014 2.441c.941.896.324 1.672.324 1.672s1.783-1.133.494-2.371c-1.163-1.117-.804-1.742-.804-1.742zm.31 4.113h-3.953l2 8h8l.275-1.098c.233.058.474.098.725.098 1.657 0 3-1.343 3-3 0-1.406-.97-2.577-2.275-2.902l.275-1.098zm7.531 2.062a1 2 15 0 1 .034.006 1 2 15 0 1 .449 2.192 1 2 15 0 1 -1.451 1.678z" fill="#474747"/>
</svg>

<svg xmlns="http://www.w3.org/2000/svg" width="16" height="16" version="1.1">
 <defs>
  <style id="current-color-scheme" type="text/css">
   .ColorScheme-Text { color:#474747; } .ColorScheme-Highlight { color:#4285f4; }
  </style>
 </defs>
 <path style="fill:currentColor" class="ColorScheme-Text" d="M 6.172,1 C 6.172,1 6.996,1.465 6.414,2.688 5.533,4.53 7.227,4.951 7.227,4.951 7.227,4.951 6.689,4.519 7.406,2.998 8.199,1.313 6.172,1 6.172,1 Z M 9.371,2.84 C 9.371,2.84 7.729,3.47 8.787,5.191 9.487,6.332 8.711,6.898 8.711,6.898 8.711,6.898 10.696,6.335 9.738,4.76 8.878,3.336 9.371,2.84 9.371,2.84 Z M 4.643,2.887 C 4.643,2.887 3.205,3.982 4.629,5.328 5.57,6.224 4.953,7 4.953,7 4.953,7 6.736,5.867 5.447,4.629 4.284,3.512 4.643,2.887 4.643,2.887 Z M 4.953,7 H 1 L 3,15 H 11 L 11.275,13.902 C 11.508,13.96 11.749,14 12,14 13.657,14 15,12.657 15,11 15,9.594 14.03,8.423 12.725,8.098 L 13,7 Z M 12.484,9.062 A 1,2 15 0 1 12.518,9.068 1,2 15 0 1 12.967,11.26 1,2 15 0 1 11.516,12.938 Z"/>
</svg>
